**kern	**kern
*part1	*part1
*staff2	*staff1
*I"Piano	*
*I'Pno.	*
*clefF4	*clefG2
*k[b-e-a-]	*k[b-e-a-]
*M2/4	*M2/4
=1	=1
4r	2ee- 2gg 2ccc
*	*^
4E- 4c	.	4a-
*	*v	*v
=2	=2
4r	2cc 2ee- 2gg
4AA- 4E- 4c	.
=3	=3
4r	2c 2ee- 2gg
*	*^
4r	.	4E- 4g-X 4cc
*	*v	*v
=4	=4
4r	2e- 2g 2ccc
*	*^
4EE-	.	4een 4gg-X
*	*v	*v
=5	=5
4r	2e- 2ggn 2ccc
*	*^
4r	.	4c 4b- 4gg-X
*	*v	*v
=6	=6
4r	2g 2cc 2ee-X
4AA- 4C 4B-	.
=7	=7
4r	2e- 2cc 2ggn
*	*^
4A-	.	4c 4b-
*	*v	*v
=8	=8
4r	2c 2g 2ee-
*	*^
4C 4B-	.	4g-X
*	*v	*v
=9	=9
4r	2c 2e- 2gg
*	*^
4AAA-	.	4b- 4cc
*	*v	*v
=10	=10
4r	2G 2c 2ee-
*	*^
4CC	.	4g-X 4an
*	*v	*v
!!linebreak:original
=11	=11
4r	2G 2cc 2ee-
*	*^
4AA-X	.	4en 4an
*	*v	*v
=12	=12
4r	2G 2e-X 2cc
*	*^
4BB- 4A-	.	4en
*	*v	*v
==	==
*-	*-
!!!system-decoration: {(s1,s2)}
